src/assets/mobile/australia.svg

<svg width="34" height="34" viewBox="0 0 34 34" fill="none" xmlns="http://www.w3.org/2000/svg">
<g clip-path="url(#clip0_1220_8263)">
<path d="M30.2222 4.72168H3.77778C3.58417 4.72168 3.39339 4.73585 3.20734 4.76418L3.20356 6.42074L0.625226 6.41696C0.216421 7.03447 -0.00106915 7.75889 3.95195e-06 8.49946V25.4995C3.95195e-06 26.5014 0.398019 27.4623 1.10649 28.1707C1.81496 28.8792 2.77585 29.2772 3.77778 29.2772H30.2222C31.2242 29.2772 32.185 28.8792 32.8935 28.1707C33.602 27.4623 34 26.5014 34 25.4995V8.49946C34 7.49753 33.602 6.53664 32.8935 5.82816C32.185 5.11969 31.2242 4.72168 30.2222 4.72168Z" fill="#00247D"/>
<path d="M8.50018 24.5773L7.34607 25.6436L7.46035 24.0758L5.90674 23.8388L7.20346 22.951L6.42052 21.5882L7.92313 22.049L8.50018 20.5861L9.07818 22.049L10.5808 21.5882L9.7969 22.951L11.0946 23.8388L9.54096 24.0758L9.65524 25.6436L8.50018 24.5773ZM26.3974 9.03082L25.6428 9.72782L25.7174 8.70216L24.7002 8.54727L25.5493 7.96643L25.0374 7.07488L26.0196 7.37616L26.3974 6.41943L26.7761 7.37616L27.7593 7.07488L27.2465 7.96643L28.0946 8.54727L27.0783 8.70216L27.153 9.72782L26.3974 9.03082ZM22.6196 14.6975L21.865 15.3954L21.9396 14.3698L20.9225 14.2149L21.7715 13.6331L21.2596 12.7415L22.2418 13.0428L22.6196 12.0861L22.9983 13.0428L23.9815 12.7415L23.4687 13.6331L24.3168 14.2149L23.3006 14.3698L23.3752 15.3954L22.6196 14.6975ZM31.1196 12.8086L30.365 13.5065L30.4396 12.4809L29.4225 12.326L30.2715 11.7442L29.7596 10.8527L30.7418 11.1539L31.1196 10.1972L31.4983 11.1539L32.4815 10.8527L31.9687 11.7442L32.8168 12.326L31.8006 12.4809L31.8752 13.5065L31.1196 12.8086ZM26.3974 26.0308L25.6428 26.7288L25.7174 25.7031L24.7002 25.5482L25.5493 24.9664L25.0374 24.0749L26.0196 24.3762L26.3974 23.4194L26.7761 24.3762L27.7593 24.0749L27.2465 24.9664L28.0946 25.5482L27.0783 25.7031L27.153 26.7288L26.3974 26.0308ZM29.278 15.1112L29.5556 15.674L30.1761 15.7638L29.7275 16.201L29.8333 16.8197L29.278 16.5278L28.7226 16.8197L28.8284 16.201L28.3798 15.7638L29.0003 15.674L29.278 15.1112Z" fill="white"/>
<path d="M17.9444 16.9995V4.72168H3.77778C3.47556 4.72168 3.20734 4.76418 3.20734 4.76418L3.20356 6.42074L0.625225 6.41696C0.625225 6.41696 0.585558 6.47268 0.50528 6.61057C0.17351 7.18474 -0.000789976 7.83633 2.6916e-06 8.49946V16.9995H17.9444Z" fill="#00247D"/>
<path d="M17.9444 4.72168H15.7429L11.3333 7.80907V4.72168H6.61111V7.14796L3.20733 4.76418C2.63958 4.84899 2.09913 5.06394 1.62822 5.39224L6.069 8.49946H4.42944L0.913278 6.0354C0.809585 6.15661 0.713387 6.28403 0.625222 6.41696L3.60117 8.49946H0V13.2217H3.66917L0 15.834V16.9995H3.14689L6.61111 14.5741V16.9995H11.3333V13.9121L15.742 16.9995H17.9444V15.0832L15.2858 13.2217H17.9444V8.49946H15.2868L17.9444 6.63796V4.72168Z" fill="#EEEEEE"/>
<path d="M10.3889 4.72168H7.55556V9.4439H0V12.2772H7.55556V16.9995H10.3889V12.2772H17.9444V9.4439H10.3889V4.72168Z" fill="#CF1B2B"/>
<path d="M17.9446 4.72168H16.5647L11.3335 8.38518V8.49946H12.8172L17.9446 4.90868V4.72168ZM1.62836 5.39224C1.36395 5.57571 1.12374 5.7918 0.913415 6.0354L4.42958 8.49946H6.06819L1.62836 5.39224ZM6.07952 13.2217L0.693359 16.9995H2.32441L6.61125 13.998V13.2217H6.07952ZM17.9446 16.8125V15.6602L14.4624 13.2217H12.8162L17.9446 16.8125Z" fill="#CF1B2B"/>
</g>
<defs>
<clipPath id="clip0_1220_8263">
<rect width="34" height="34" fill="white"/>
</clipPath>
</defs>
</svg>

<svg xmlns="http://www.w3.org/2000/svg" width="34" height="34" fill="none"><g clip-path="url(#a)"><path fill="#00247D" d="M30.222 4.722H3.778a4 4 0 0 0-.57.042l-.004 1.657-2.579-.004A3.76 3.76 0 0 0 0 8.499v17a3.777 3.777 0 0 0 3.778 3.778h26.444A3.78 3.78 0 0 0 34 25.5v-17a3.78 3.78 0 0 0-3.778-3.778"/><path fill="#fff" d="m8.5 24.577-1.154 1.067.114-1.568-1.553-.237 1.296-.888-.782-1.363 1.502.461.577-1.463.578 1.463 1.503-.46-.784 1.362 1.298.888-1.554.237.114 1.568zM26.397 9.031l-.754.697.074-1.026-1.017-.155.85-.58-.513-.892.983.301.377-.957.38.957.982-.301-.512.891.848.581-1.017.155.075 1.026zm-3.777 5.666-.755.698.075-1.025-1.018-.155.85-.582-.512-.891.982.3.378-.956.378.957.983-.301-.512.891.848.582-1.016.155.074 1.025zm8.5-1.888-.755.698.075-1.026-1.018-.155.85-.582-.512-.891.982.3.378-.956.378.957.983-.301-.512.891.848.582-1.016.155.074 1.026zM26.397 26.03l-.754.698.074-1.026-1.017-.155.85-.582-.513-.891.983.301.377-.957.38.957.982-.301-.512.891.848.582-1.017.155.075 1.026zm2.881-10.92.278.563.62.09-.448.437.105.619-.555-.292-.555.292.105-.619-.448-.437.62-.09z"/><path fill="#00247D" d="M17.944 17V4.722H3.778c-.302 0-.57.042-.57.042l-.004 1.657-2.579-.004s-.04.056-.12.194A3.77 3.77 0 0 0 0 8.499V17z"/><path fill="#EEE" d="M17.944 4.722h-2.201l-4.41 3.087V4.722H6.611v2.426L3.207 4.764c-.567.085-1.108.3-1.579.628L6.07 8.5h-1.64L.913 6.035a4 4 0 0 0-.288.382l2.976 2.082H0v4.723h3.67L0 15.834V17h3.147l3.464-2.426V17h4.722v-3.088L15.742 17h2.202v-1.917l-2.658-1.861h2.658V8.499h-2.657l2.657-1.861z"/><path fill="#CF1B2B" d="M10.389 4.722H7.556v4.722H0v2.833h7.556V17h2.833v-4.723h7.555V9.444H10.39z"/><path fill="#CF1B2B" d="M17.945 4.722h-1.38l-5.232 3.663V8.5h1.484l5.128-3.59zm-16.317.67q-.397.277-.715.643L4.43 8.5h1.638zm4.452 7.83L.693 17h1.631l4.287-3.002v-.776zm11.865 3.59V15.66l-3.483-2.438h-1.646z"/></g><defs><clipPath id="a"><path fill="#fff" d="M0 0h34v34H0z"/></clipPath></defs></svg>
